src/images/sources/barcode.svg

<svg xmlns="http://www.w3.org/2000/svg" width="56" height="510" viewBox="0 0 56 510"><defs><style>.cls-1 { fill: #fff; fill-rule: evenodd; opacity: 0.5; }</style></defs><path id="barcode.svg" d="M0 510h315v-4H0v4zm0-6h315v-2H0v2zm0-6h315v-2H0v2zm0-10h315v-2H0v2zm0-8h315v-2H0v2zm0-8h315v-4H0v4zm0-6h315v-4H0v4zm0-6h315v-8H0v8zm0-10h315v-4H0v4zm0-6h315v-2H0v2zm0-4h315v-4H0v4zm0-8h315v-2H0v2zm0-10h315v-2H0v2zm0-10h315v-2H0v2zm0-4h315v-4H0v4zm0-8h315v-2H0v2zm0-6h315v-4H0v4zm0-12h315v-2H0v2zm0-4h315v-2H0v2zm0-8h315v-4H0v4zm0-6h315v-2H0v2zm0-8h315v-2H0v2zm0-8h315v-4H0v4zm0-6h315v-6H0v6zm0-8h315v-2H0v2zm0-10h315v-4H0v4zm0-6h315v-2H0v2zm0-6h315v-2H0v2zm0-6h315v-2H0v2zm0-10h315v-4H0v4zm0-6h315v-4H0v4zm0-6h315v-4H0v4zm0-8h315v-4H0v4zm0-8h315v-4H0v4zm0-8h315v-2H0v2zm0-4h315v-2H0v2zm0-10h315v-2H0v2zm0-8h315v-8H0v8zm0-10h315v-2H0v2zm0-4h315v-2H0v2zm0-6h315v-4H0v4zm0-6h315v-2H0v2zm0-10h315v-2H0v2zm0-8h315v-8H0v8zm0-10h315v-2H0v2zm0-4h315v-8H0v8zm0-10h315v-6H0v6zm0-8h315v-2H0v2zm0-4h315v-2H0v2zm0-6h315v-2H0v2zm0-4h315v-4H0v4zm0-12h315v-4H0v4zm0-12h315v-2H0v2zm0-4h315v-2H0v2zm0-6h315v-2H0v2zm0-6h315v-8H0v8zm0-12h315v-2H0v2zm0-4h315v-2H0v2zm0-6h315v-2H0v2zm0-4h315v-4H0v4zm0-12h315v-4H0v4zm0-8h315v-2H0v2zm0-4h315v-2H0v2zm0-10h315v-4H0v4zm0-8h315v-2H0v2zm0-10h315v-2H0v2zm0-4h315v-4H0v4zm0-10h315v-6H0v6zm0-8h315V6H0v2zm0-4h315V0H0v4z" class="cls-1"/></svg>

<svg xmlns="http://www.w3.org/2000/svg" width="315" height="510" viewBox="0 0 315 510">
  <path fill="#FFFFFF" fill-rule="evenodd" d="M0,510 L315,510 L315,506 L0,506 L0,510 Z M0,504 L315,504 L315,502 L0,502 L0,504 Z M0,498 L315,498 L315,496 L0,496 L0,498 Z M0,488 L315,488 L315,486 L0,486 L0,488 Z M0,480 L315,480 L315,478 L0,478 L0,480 Z M0,472 L315,472 L315,468 L0,468 L0,472 Z M0,466 L315,466 L315,462 L0,462 L0,466 Z M0,460 L315,460 L315,452 L0,452 L0,460 Z M0,450 L315,450 L315,446 L0,446 L0,450 Z M0,444 L315,444 L315,442 L0,442 L0,444 Z M0,440 L315,440 L315,436 L0,436 L0,440 Z M0,432 L315,432 L315,430 L0,430 L0,432 Z M0,422 L315,422 L315,420 L0,420 L0,422 Z M0,412 L315,412 L315,410 L0,410 L0,412 Z M0,408 L315,408 L315,404 L0,404 L0,408 Z M0,400 L315,400 L315,398 L0,398 L0,400 Z M0,394 L315,394 L315,390 L0,390 L0,394 Z M0,382 L315,382 L315,380 L0,380 L0,382 Z M0,378 L315,378 L315,376 L0,376 L0,378 Z M0,370 L315,370 L315,366 L0,366 L0,370 Z M0,364 L315,364 L315,362 L0,362 L0,364 Z M0,356 L315,356 L315,354 L0,354 L0,356 Z M0,348 L315,348 L315,344 L0,344 L0,348 Z M0,342 L315,342 L315,336 L0,336 L0,342 Z M0,334 L315,334 L315,332 L0,332 L0,334 Z M0,324 L315,324 L315,320 L0,320 L0,324 Z M0,318 L315,318 L315,316 L0,316 L0,318 Z M0,312 L315,312 L315,310 L0,310 L0,312 Z M0,306 L315,306 L315,304 L0,304 L0,306 Z M0,296 L315,296 L315,292 L0,292 L0,296 Z M0,290 L315,290 L315,286 L0,286 L0,290 Z M0,284 L315,284 L315,280 L0,280 L0,284 Z M0,276 L315,276 L315,272 L0,272 L0,276 Z M0,268 L315,268 L315,264 L0,264 L0,268 Z M0,260 L315,260 L315,258 L0,258 L0,260 Z M0,256 L315,256 L315,254 L0,254 L0,256 Z M0,246 L315,246 L315,244 L0,244 L0,246 Z M0,238 L315,238 L315,230 L0,230 L0,238 Z M0,228 L315,228 L315,226 L0,226 L0,228 Z M0,224 L315,224 L315,222 L0,222 L0,224 Z M0,218 L315,218 L315,214 L0,214 L0,218 Z M0,212 L315,212 L315,210 L0,210 L0,212 Z M0,202 L315,202 L315,200 L0,200 L0,202 Z M0,194 L315,194 L315,186 L0,186 L0,194 Z M0,184 L315,184 L315,182 L0,182 L0,184 Z M0,180 L315,180 L315,172 L0,172 L0,180 Z M0,170 L315,170 L315,164 L0,164 L0,170 Z M0,162 L315,162 L315,160 L0,160 L0,162 Z M0,158 L315,158 L315,156 L0,156 L0,158 Z M0,152 L315,152 L315,150 L0,150 L0,152 Z M0,148 L315,148 L315,144 L0,144 L0,148 Z M0,136 L315,136 L315,132 L0,132 L0,136 Z M0,124 L315,124 L315,122 L0,122 L0,124 Z M0,120 L315,120 L315,118 L0,118 L0,120 Z M0,114 L315,114 L315,112 L0,112 L0,114 Z M0,108 L315,108 L315,100 L0,100 L0,108 Z M0,96 L315,96 L315,94 L0,94 L0,96 Z M0,92 L315,92 L315,90 L0,90 L0,92 Z M0,86 L315,86 L315,84 L0,84 L0,86 Z M0,82 L315,82 L315,78 L0,78 L0,82 Z M0,70 L315,70 L315,66 L0,66 L0,70 Z M0,62 L315,62 L315,60 L0,60 L0,62 Z M0,58 L315,58 L315,56 L0,56 L0,58 Z M0,48 L315,48 L315,44 L0,44 L0,48 Z M0,40 L315,40 L315,38 L0,38 L0,40 Z M0,30 L315,30 L315,28 L0,28 L0,30 Z M0,26 L315,26 L315,22 L0,22 L0,26 Z M0,16 L315,16 L315,10 L0,10 L0,16 Z M0,8 L315,8 L315,6 L0,6 L0,8 Z M0,4 L315,4 L315,0 L0,0 L0,4 Z"/>
</svg>
